(
~sim = Routine(
    { loop ( {
        ~mock.();
        [1.9, 1, 0.5, 2.5].choose.wait;
		//"mocked" .postln;
        }
) }).play;
)

~sim.stop

~upmMax = 20
~melos[\seqRates]
(
//Zugriff auf Synths
var synthArgs;
SynthDescLib.global.browse;
SynthDescLib.global.synthDescs.at(\bellFm)
SynthDescLib.at(~states.pr.pr0.instrument).controlNames;
SynthDescLib.global.synthDescs.at(~states.pr.pr10.instrument);
synthArgs = SynthDescLib.at(~states.pr.pr0.instrument).controlDict.collect(_.defaultValue);
synthArgs.postln;
Synth(~states.pr.pr0.instrument, [\freq, 300]);
)
(
var buf, start, dur, end, opm;
opm = 10;
buf = ~buffers[\catSampEn];
start = opm.linlin(0, 10, 0, buf.numFrames-1);
dur = opm.linlin(0, 10, 1000, buf.numFrames/2);
x = Synth(\brPhsr, [\buf, buf, \start, start, \end, start+dur]);
)

~ch3.level
(
~b = ~buffers[\hits][\SnoopSetsUp];
~hitPlay = Synth(\hitSt, [\buf, ~hitSample.normalize, \amp, 0.6, \start, 0, \end, ~hitSample.numFrames, \rls, 7])
~hitPlay.set(\amp, 0.5)
~hitPlay.set(\harm, 5)
~hitPlay.set(\gate, 1)
~hitPlay.release(2)

)
(
Pbindef(\hh01, \dur, 0.25, \freq, 600, \maxFreq, 1300, \fade, 1).play(~t, quant:8);
Pbindef(\kik02).play(~t, quant:8);
Pbindef(\bass, \midinote, ~melos.melo.bass23, \dur, ~melos.dur.bass23, \modRate, 0.5, \fmratio, 2).play(~t, quant:8);
Pbindef(\hh01, \decayScale,1 , \freq, 200, \maxfrq, 800, \minRing, 0.1, \maxRing, 1, \dur, 0.25, \accent, 3);
Pbindef(\con);
Pbindef(\bass, \midinote, Pseq([36, 39, 36, 36, 36, 36, 36, \ ], inf), \dur,  Pseq([0.5, 0.5, 0.5, 0.75, 0.75, 0.25, 0.75, 0.25], inf));
Pbindef(\pr, *~states[\pr][\pr20].asPairs).play(~t);
Pbindef(\dis, *~states[\dis][\dis20].asPairs).play(~t);
Pbindef(\ins, *~states[\ins][\ins20].asPairs).play(~t);
Pbindef(\pr, *~states[\lec][\lec20].asPairs).play(~t);
Pbindef(\pr, *~states[\pr][\pr20].asPairs).play(~t);
Pbindef(\pr, *~states[\pr][\pr20].asPairs).play(~t);
Pbindef(\dis, \rls, 0.2, \vibF, 0.2, \vibVol, 90,  \index, 9);
Pbindef(\dis, \rls, 0.1  );
Pbindef(\pr, \rls, 0.2, \vibF, 2, \vibVol, 80, \fmDur, 0.02, \index, 1, \bpf, 200, \bpf2, 3, \crv, 5);
Pbindef(\con).play(~t.con);
Pbindef(\con, \trmDep, 3, \trmF, 0.1, \trmRate, 6, \vibF, 4, \vibVol, 100);
Pbindef(\ins, \rls, 0.2, \vibF, 1, \vibVol, 50,  \index, 1, \cRatio, 3, \trmDep, 3, \trmF, 2);
Pbindef(\lec, \vibF, 3, \vibVol, 80);

)


(
var n = 23;
~totalUtts = 70;
~mock.();
/*~allocate.(\dis, n);
~allocate.(\ins, n);
~allocate.(\lec, n);
~allocate.(\pr, n);
~allocate.(\con, n);*/

~allocate.(\dis, 41);
~allocate.(\ins, 40);
~allocate.(\lec, 43);
~allocate.(\pr, 40);
~allocate.(\con, 40)

~melos.melo.dis00
~states.dis.dis00
~states.ins.keys.do{|k| ~states.ins[k][\midinote].postln}


~makePatternList.("note", "/Users/borisjoens/Documents/Projekte/Kommentariat/Meinungsorgel_Git/SmallData/shows/edge/midi/Bass23.mid", True)